src/img/svg/icon-covid.svg

<svg width="33" height="32" viewBox="0 0 33 32" fill="none" xmlns="http://www.w3.org/2000/svg">
<path d="M9.85714 24.3396H8.85714C8.85714 24.8919 9.30486 25.3396 9.85714 25.3396V24.3396ZM23.1429 24.3396V25.3396C23.6951 25.3396 24.1429 24.8919 24.1429 24.3396H23.1429ZM9.85714 25.3396H23.1429V23.3396H9.85714V25.3396ZM24.1429 24.3396V20.198H22.1429V24.3396H24.1429ZM8.85714 20.198V24.3396H10.8571V20.198H8.85714ZM16.5 12.9856C12.3431 12.9856 8.85714 16.1526 8.85714 20.198H10.8571C10.8571 17.3813 13.3194 14.9856 16.5 14.9856V12.9856ZM24.1429 20.198C24.1429 16.1526 20.6569 12.9856 16.5 12.9856V14.9856C19.6806 14.9856 22.1429 17.3813 22.1429 20.198H24.1429ZM31 24.3396C31 24.8345 30.7539 25.4067 30.0941 26.0319C29.4321 26.6591 28.4207 27.2701 27.0881 27.8042C24.4284 28.8702 20.6853 29.552 16.5 29.552V31.552C20.8751 31.552 24.882 30.8431 27.8322 29.6606C29.3045 29.0705 30.563 28.3428 31.4698 27.4836C32.3787 26.6223 33 25.5601 33 24.3396H31ZM16.5 29.552C12.3147 29.552 8.57163 28.8702 5.91188 27.8042C4.57926 27.2701 3.56785 26.6591 2.9059 26.0319C2.24615 25.4067 2 24.8345 2 24.3396H0C0 25.5601 0.621303 26.6223 1.53023 27.4836C2.43697 28.3428 3.69548 29.0705 5.16781 29.6606C8.11796 30.8431 12.1249 31.552 16.5 31.552V29.552ZM2 24.3396C2 23.851 2.23957 23.2878 2.88009 22.6719C3.5233 22.0534 4.50732 21.449 5.80714 20.9173L5.05 19.0662C3.61033 19.655 2.38008 20.3781 1.49387 21.2302C0.604968 22.0849 0 23.1354 0 24.3396H2ZM27.1929 20.9173C28.4927 21.449 29.4767 22.0534 30.1199 22.6719C30.7604 23.2878 31 23.851 31 24.3396H33C33 23.1354 32.395 22.0849 31.5061 21.2302C30.6199 20.3781 29.3897 19.655 27.95 19.0662L27.1929 20.9173ZM16.5 8.84393C14.5423 8.84393 13.0714 7.37534 13.0714 5.7023H11.0714C11.0714 8.60399 13.566 10.8439 16.5 10.8439V8.84393ZM19.9286 5.7023C19.9286 7.37534 18.4577 8.84393 16.5 8.84393V10.8439C19.434 10.8439 21.9286 8.60399 21.9286 5.7023H19.9286ZM16.5 2.56067C18.4577 2.56067 19.9286 4.02927 19.9286 5.7023H21.9286C21.9286 2.80062 19.434 0.560669 16.5 0.560669V2.56067ZM16.5 0.560669C13.566 0.560669 11.0714 2.80062 11.0714 5.7023H13.0714C13.0714 4.02927 14.5423 2.56067 16.5 2.56067V0.560669Z" fill="#0085FF"/>
</svg>

<svg xmlns="http://www.w3.org/2000/svg" width="33" height="32" fill="none"><path fill="#0085FF" d="M9.857 24.34h-1a1 1 0 001 1v-1zm13.286 0v1a1 1 0 001-1h-1zm-13.286 1h13.286v-2H9.857v2zm14.286-1v-4.142h-2v4.142h2zM8.857 20.198v4.142h2v-4.142h-2zm7.643-7.212c-4.157 0-7.643 3.167-7.643 7.212h2c0-2.817 2.462-5.212 5.643-5.212v-2zm7.643 7.212c0-4.045-3.486-7.212-7.643-7.212v2c3.18 0 5.643 2.395 5.643 5.212h2zM31 24.34c0 .494-.246 1.067-.906 1.692-.662.627-1.673 1.238-3.006 1.772-2.66 1.066-6.403 1.748-10.588 1.748v2c4.375 0 8.382-.709 11.332-1.891 1.473-.59 2.731-1.318 3.638-2.177.909-.862 1.53-1.924 1.53-3.144h-2zm-14.5 5.212c-4.185 0-7.928-.682-10.588-1.748-1.333-.534-2.344-1.145-3.006-1.772C2.246 25.407 2 24.834 2 24.34H0c0 1.22.621 2.282 1.53 3.144.907.859 2.165 1.586 3.638 2.177 2.95 1.182 6.957 1.891 11.332 1.891v-2zM2 24.34c0-.489.24-1.052.88-1.668.643-.619 1.627-1.223 2.927-1.755l-.757-1.85c-1.44.588-2.67 1.311-3.556 2.163C.605 22.085 0 23.135 0 24.34h2zm25.193-3.423c1.3.532 2.284 1.136 2.927 1.755.64.616.88 1.179.88 1.668h2c0-1.205-.605-2.255-1.494-3.11-.886-.852-2.116-1.575-3.556-2.164l-.757 1.851zM16.5 8.844c-1.958 0-3.429-1.469-3.429-3.142h-2c0 2.902 2.495 5.142 5.429 5.142v-2zm3.429-3.142c0 1.673-1.471 3.142-3.429 3.142v2c2.934 0 5.429-2.24 5.429-5.142h-2zM16.5 2.561c1.958 0 3.429 1.468 3.429 3.141h2c0-2.901-2.495-5.141-5.429-5.141v2zm0-2c-2.934 0-5.429 2.24-5.429 5.141h2c0-1.673 1.471-3.141 3.429-3.141v-2z"/></svg>
